; generated by QIDISlicer 1.2.3 on 2025-06-15 at 06:59:33 UTC


;
;
; 

; external perimeters extrusion width = 0.42mm
; perimeters extrusion width = 0.45mm
; infill extrusion width = 0.45mm
; solid infill extrusion width = 0.42mm
; top infill extrusion width = 0.42mm
; first layer extrusion width = 0.50mm

;TYPE:Custom
EXCLUDE_OBJECT_DEFINE NAME=SP02_ALPHA_SEPA_COUPLEUR_stl CENTER=162.501,164.253 POLYGON=[[162.879,155.291],[163.583,155.573],[163.882,155.809],[164.131,156.097],[164.445,156.787],[164.479,157.545],[164.199,158.575],[164.052,159.940],[164.220,161.303],[164.692,162.592],[165.446,163.739],[166.440,164.686],[167.624,165.381],[169.300,165.896],[169.939,166.304],[170.380,166.921],[170.560,167.657],[170.542,168.038],[170.294,168.754],[169.798,169.327],[169.123,169.674],[168.368,169.745],[167.995,169.672],[167.321,169.323],[166.038,168.128],[164.844,167.451],[163.527,167.063],[162.156,166.984],[160.804,167.219],[159.540,167.756],[158.431,168.565],[157.679,169.323],[157.005,169.672],[156.251,169.746],[155.523,169.533],[154.927,169.065],[154.548,168.408],[154.440,167.657],[154.620,166.921],[155.061,166.304],[155.361,166.069],[155.700,165.896],[157.376,165.381],[158.560,164.686],[159.554,163.739],[159.964,163.187],[160.581,161.961],[160.903,160.626],[160.914,159.254],[160.521,157.545],[160.502,157.164],[160.679,156.427],[160.869,156.097],[161.417,155.573],[162.121,155.291]]
M73 P0 R12
PRINT_START
G28
M141 S0
G0 Z50 F600
M190 S60
G28 Z
G29; mesh bed leveling, comment this code to close it
G0 X0 Y0 Z50 F6000
M73 P1 R12
M109 S210
M106 P3 S255
M83
G4 P3000
T0



G0 X144.334 Y145.154 Z5 F6000
M73 P2 R11
G0 Z0.2 F600
G1 E3 F1800
G1 X229.334 E3.4 F3000
G1 Y147.154 E0.08
G1 X144.334 E3.4
G1 Y230.154 E3.32
M73 P3 R11
G1 X146.334 E0.08
G1 Y148.154 E3.28
G1 X156.334 E-0.4
G1 E0.4 F3000
G21 ; set units to millimeters
G90 ; use absolute coordinates
M83 ; use relative distances for extrusion
; Filament gcode
M900 K0.031 T0.03
M107
M106 P2 S0
M106 P3 S255
;LAYER_CHANGE
;Z:0.2
;HEIGHT:0.2
G1 E-1 F1800
G1 X144.334 Y145.154 Z0 F30000
G1 X150.734 Y149.313 Z.4 F11464.393
G1 X157.237 Y153.539 Z.4 F30000
G1 X157.237 Y153.539
G1 Z.2 F600
G1 E1 F1800
M204 S500
;TYPE:Skirt/Brim
;WIDTH:0.5
G1 F3000
G1 X157.979 Y152.666 E.04267
G1 X158.952 Y151.878 E.04663
G1 X159.991 Y151.322 E.04389
G1 X161.266 Y150.933 E.04965
G1 X162.802 Y150.818 E.05737
G1 X163.776 Y150.94 E.03656
G1 X164.744 Y151.214 E.03747
G1 X165.907 Y151.787 E.04829
G1 X166.994 Y152.64 E.05146
G1 X167.858 Y153.68 E.05036
G1 X168.473 Y154.838 E.04884
G1 X168.775 Y155.8 E.03755
G1 X168.925 Y156.767 E.03645
G1 X168.855 Y158.308 E.05746
G1 X168.364 Y160.015 E.06616
G1 X168.457 Y160.486 E.01788
G1 X168.746 Y160.984 E.02145
G1 X169.099 Y161.302 E.0177
G1 X169.674 Y161.393 E.02168
G1 X171.058 Y161.815 E.05389
G1 X172.186 Y162.428 E.04782
G1 X173.024 Y163.108 E.0402
G1 X173.743 Y163.926 E.04056
G1 X174.426 Y165.09 E.05027
G1 X174.852 Y166.362 E.04996
G1 X174.998 Y167.493 E.04247
G1 X174.948 Y168.604 E.04142
G1 X174.603 Y169.994 E.05334
G1 X174.125 Y171.002 E.04155
G1 X173.488 Y171.905 E.04116
G1 X172.646 Y172.737 E.04409
G1 X171.393 Y173.542 E.05547
G1 X170.458 Y173.911 E.03744
G1 X169.452 Y174.137 E.0384
G1 X167.695 Y174.14 E.06544
G1 X166.75 Y173.936 E.03601
G1 X165.854 Y173.601 E.03563
G1 X164.504 Y172.759 E.05926
G1 X163.242 Y171.446 E.06783
G1 X162.598 Y171.276 E.02481
G1 X162.215 Y171.297 E.01429
G1 X161.758 Y171.451 E.01796
G1 X161.392 Y171.896 E.02146
G1 X160.282 Y172.925 E.05638
G1 X159.341 Y173.505 E.04117
G1 X158.276 Y173.928 E.04268
G1 X157.149 Y174.157 E.04283
G1 X155.982 Y174.18 E.04347
G1 X154.865 Y174.001 E.04213
G1 X153.798 Y173.631 E.04206
G1 X152.733 Y173.025 E.04564
G1 X151.755 Y172.178 E.04819
G1 X150.99 Y171.191 E.04651
G1 X150.434 Y170.09 E.04594
G1 X150.1 Y168.904 E.04589
G1 X149.996 Y167.68 E.04575
G1 X150.128 Y166.457 E.04582
M73 P4 R11
G1 X150.494 Y165.271 E.04623
G1 X151.062 Y164.206 E.04496
G1 X151.782 Y163.3 E.0431
G1 X152.775 Y162.455 E.04856
G1 X154.241 Y161.698 E.06145
G1 X155.916 Y161.285 E.06426
G1 X156.371 Y160.828 E.02402
G1 X156.543 Y160.486 E.01426
G1 X156.643 Y160.015 E.01793
G1 X156.434 Y159.471 E.02171
G1 X156.114 Y158.101 E.0524
G1 X156.081 Y156.704 E.05205
G1 X156.256 Y155.668 E.03913
G1 X156.608 Y154.65 E.04012
G1 X157.208 Y153.591 E.04533
M204 S10000
G1 X157.606 Y153.817 F30000
M204 S500
G1 F3000
G1 X157.624 Y153.784 E.0014
G1 X158.312 Y152.98 E.03941
G1 X159.222 Y152.248 E.0435
G1 X160.147 Y151.752 E.03909
G1 X161.328 Y151.386 E.04605
G1 X162.768 Y151.274 E.0538
G1 X163.701 Y151.391 E.03502
G1 X164.597 Y151.648 E.03472
G1 X165.682 Y152.186 E.04511
G1 X166.659 Y152.952 E.04624
G1 X167.467 Y153.917 E.04688
G1 X168.044 Y154.996 E.04557
G1 X168.326 Y155.887 E.03481
G1 X168.47 Y156.814 E.03494
G1 X168.4 Y158.262 E.054
G1 X167.896 Y159.959 E.06594
G1 X168.025 Y160.638 E.02574
G1 X168.247 Y161.079 E.01839
G1 X168.749 Y161.615 E.02735
G1 X168.95 Y161.741 E.00884
G1 X169.557 Y161.835 E.02288
G1 X170.902 Y162.246 E.05238
G1 X171.948 Y162.818 E.0444
G1 X172.72 Y163.45 E.03716
G1 X173.361 Y164.178 E.03613
G1 X174.001 Y165.26 E.04682
G1 X174.402 Y166.445 E.0466
G1 X174.541 Y167.492 E.03934
G1 X174.492 Y168.561 E.03986
G1 X174.179 Y169.82 E.04832
G1 X173.74 Y170.755 E.03847
G1 X173.127 Y171.625 E.03964
G1 X172.343 Y172.394 E.0409
G1 X171.204 Y173.125 E.05041
G1 X170.307 Y173.479 E.03592
G1 X169.377 Y173.685 E.03548
G1 X167.766 Y173.688 E.06
G1 X166.894 Y173.502 E.03321
G1 X166.035 Y173.181 E.03416
G1 X164.804 Y172.413 E.05404
G1 X163.927 Y171.569 E.04533
G1 X163.548 Y171.096 E.02258
G1 X163.11 Y170.904 E.01781
G1 X162.624 Y170.82 E.01837
G1 X162.131 Y170.848 E.01839
G1 X161.477 Y171.073 E.02576
G1 X161.069 Y171.573 E.02404
G1 X160.022 Y172.549 E.05331
G1 X159.151 Y173.088 E.03815
G1 X158.163 Y173.485 E.03966
G1 X157.117 Y173.7 E.03977
G1 X156.032 Y173.725 E.04042
G1 X154.996 Y173.563 E.03906
G1 X153.968 Y173.206 E.04053
G1 X152.98 Y172.64 E.04241
G1 X152.073 Y171.849 E.04482
G1 X151.366 Y170.93 E.04319
G1 X150.853 Y169.906 E.04266
G1 X150.546 Y168.803 E.04264
G1 X150.454 Y167.666 E.04249
G1 X150.58 Y166.53 E.04257
G1 X150.924 Y165.429 E.04296
G1 X151.455 Y164.441 E.04178
G1 X152.125 Y163.604 E.03993
G1 X153.05 Y162.821 E.04514
G1 X154.386 Y162.132 E.05599
G1 X156.107 Y161.716 E.06595
G1 X156.605 Y161.278 E.0247
G1 X156.876 Y160.865 E.0184
G1 X157.046 Y160.401 E.01841
G1 X157.099 Y159.925 E.01784
G1 X156.875 Y159.349 E.02302
G1 X156.57 Y158.066 E.04912
G1 X156.539 Y156.717 E.05026
G1 X156.704 Y155.765 E.03599
G1 X157.016 Y154.857 E.03576
G1 X157.576 Y153.869 E.0423
M204 S10000
G1 X157.97 Y154.092 F30000
M204 S500
G1 F3000
G1 X157.987 Y154.063 E.00125
G1 X158.615 Y153.322 E.03618
G1 X159.491 Y152.618 E.04186
G1 X160.342 Y152.165 E.03591
G1 X161.39 Y151.84 E.04087
G1 X162.736 Y151.731 E.0503
G1 X163.593 Y151.836 E.03216
G1 X164.451 Y152.081 E.03323
G1 X165.456 Y152.584 E.04186
G1 X166.357 Y153.295 E.04275
G1 X167.076 Y154.154 E.04172
G1 X167.615 Y155.155 E.04234
G1 X167.885 Y156.008 E.03332
G1 X168.014 Y156.859 E.03206
G1 X167.951 Y158.172 E.04896
G1 X167.438 Y159.877 E.06632
G1 X167.509 Y160.509 E.02369
G1 X167.865 Y161.33 E.03333
G1 X168.248 Y161.79 E.02229
G1 X168.788 Y162.18 E.02481
G1 X169.44 Y162.277 E.02455
G1 X170.745 Y162.676 E.05083
G1 X171.708 Y163.208 E.04098
G1 X172.391 Y163.767 E.03287
G1 X172.98 Y164.431 E.03306
G1 X173.577 Y165.431 E.04338
G1 X173.952 Y166.528 E.04318
G1 X174.085 Y167.532 E.03772
G1 X174.037 Y168.516 E.03669
G1 X173.756 Y169.646 E.04337
G1 X173.335 Y170.542 E.03687
G1 X172.766 Y171.342 E.03657
G1 X172.04 Y172.051 E.0378
G1 X171.015 Y172.708 E.04535
G1 X170.19 Y173.037 E.03308
G1 X169.303 Y173.234 E.03384
G1 X167.838 Y173.236 E.05457
G1 X167.006 Y173.058 E.03169
G1 X166.218 Y172.761 E.03137
G1 X165.103 Y172.067 E.04892
G1 X164.255 Y171.25 E.04386
G1 X163.847 Y170.737 E.02441
G1 X163.24 Y170.465 E.02477
G1 X162.65 Y170.362 E.02231
G1 X162.052 Y170.397 E.02231
G1 X161.241 Y170.684 E.03204
G1 X159.76 Y172.173 E.07822
G1 X158.961 Y172.672 E.03509
G1 X158.048 Y173.042 E.03669
G1 X157.084 Y173.244 E.03669
G1 X156.082 Y173.271 E.03733
G1 X155.087 Y173.114 E.03752
G1 X154.14 Y172.782 E.03738
G1 X153.229 Y172.256 E.03918
G1 X152.392 Y171.521 E.04149
G1 X151.742 Y170.671 E.03986
G1 X151.273 Y169.723 E.03939
G1 X150.992 Y168.704 E.03937
G1 X150.911 Y167.653 E.03926
G1 X151.031 Y166.605 E.03929
G1 X151.353 Y165.588 E.03973
G1 X151.846 Y164.678 E.03855
G1 X152.466 Y163.908 E.03682
G1 X153.325 Y163.187 E.04177
G1 X154.531 Y162.566 E.05052
G1 X156.271 Y162.151 E.06663
G1 X156.752 Y161.79 E.0224
G1 X157.135 Y161.33 E.02229
G1 X157.491 Y160.509 E.03333
G1 X157.559 Y159.847 E.02479
G1 X157.316 Y159.227 E.0248
G1 X157.02 Y157.984 E.04759
G1 X156.993 Y156.771 E.04519
G1 X157.142 Y155.896 E.03306
G1 X157.442 Y155.026 E.03428
G1 X157.941 Y154.144 E.03774
M204 S10000
G1 X158.335 Y154.368 F30000
M204 S500
G1 F3000
G1 X158.35 Y154.341 E.00115
G1 X158.919 Y153.664 E.03294
G1 X159.76 Y152.988 E.04019
G1 X160.537 Y152.58 E.03269
G1 X161.454 Y152.293 E.03579
G1 X162.705 Y152.187 E.04676
G1 X163.519 Y152.287 E.03055
G1 X164.303 Y152.514 E.0304
G1 X165.23 Y152.982 E.03868
G1 X166.023 Y153.608 E.03763
G1 X166.685 Y154.394 E.03828
G1 X167.186 Y155.316 E.03908
G1 X167.436 Y156.095 E.03047
G1 X167.559 Y156.906 E.03055
G1 X167.503 Y158.082 E.04385
G1 X166.98 Y159.944 E.07204
G1 X167.064 Y160.616 E.02522
G1 X167.306 Y161.276 E.02618
G1 X167.692 Y161.864 E.0262
G1 X168.473 Y162.53 E.03823
G1 X170.547 Y163.088 E.08
G1 X171.436 Y163.576 E.03777
G1 X172.063 Y164.086 E.0301
G1 X172.6 Y164.687 E.03002
G1 X173.153 Y165.604 E.03988
G1 X173.502 Y166.613 E.03977
G1 X173.627 Y167.531 E.03451
G1 X173.582 Y168.471 E.03505
G1 X173.332 Y169.473 E.03846
G1 X172.95 Y170.294 E.03373
G1 X172.406 Y171.06 E.03499
G1 X171.739 Y171.706 E.03458
G1 X170.825 Y172.292 E.04044
G1 X170.038 Y172.605 E.03155
G1 X169.229 Y172.782 E.03084
G1 X167.909 Y172.784 E.04917
G1 X167.151 Y172.624 E.02885
G1 X166.4 Y172.342 E.02988
G1 X165.403 Y171.721 E.04375
G1 X163.993 Y170.289 E.07485
G1 X163.369 Y170.026 E.02522
G1 X162.676 Y169.905 E.0262
G1 X161.974 Y169.946 E.02619
G1 X161.01 Y170.288 E.0381
G1 X159.498 Y171.799 E.07962
G1 X158.769 Y172.257 E.03207
G1 X157.932 Y172.599 E.03368
G1 X157.048 Y172.788 E.03367
G1 X156.131 Y172.816 E.03417
G1 X155.18 Y172.666 E.03586
G1 X154.314 Y172.359 E.03422
G1 X153.479 Y171.873 E.03598
G1 X152.713 Y171.194 E.03813
G1 X152.12 Y170.413 E.03652
G1 X151.693 Y169.542 E.03613
G1 X151.439 Y168.606 E.03612
G1 X151.369 Y167.642 E.036
G1 X151.482 Y166.681 E.03604
G1 X151.781 Y165.749 E.03646
G1 X152.237 Y164.916 E.03537
G1 X152.807 Y164.214 E.03368
G1 X153.598 Y163.554 E.03837
G1 X154.676 Y163 E.04514
G1 X156.527 Y162.53 E.07113
G1 X157.308 Y161.864 E.03823
G1 X157.694 Y161.276 E.0262
G1 X157.936 Y160.616 E.02618
G1 X158.02 Y159.944 E.02522
G1 X157.471 Y157.902 E.07876
G1 X157.447 Y156.827 E.04005
G1 X157.589 Y155.992 E.03155
G1 X157.866 Y155.196 E.03139
G1 X158.305 Y154.42 E.03321
M204 S10000
G1 X158.7 Y154.643 F30000
M204 S500
G1 F3000
G1 X158.715 Y154.617 E.00112
G1 X159.224 Y154.006 E.02962
G1 X160.029 Y153.359 E.03847
G1 X160.729 Y152.995 E.02939
G1 X161.52 Y152.746 E.03089
G1 X162.675 Y152.644 E.04319
G1 X163.41 Y152.732 E.02757
G1 X164.154 Y152.947 E.02885
G1 X165.001 Y153.378 E.0354
G1 X165.72 Y153.951 E.03424
G1 X166.296 Y154.634 E.03328
G1 X166.758 Y155.477 E.0358
G1 X166.995 Y156.216 E.02891
G1 X167.104 Y156.95 E.02764
G1 X167.054 Y157.991 E.03882
G1 X166.799 Y158.997 E.03865
G1 X166.54 Y159.664 E.02665
G1 X166.522 Y159.944 E.01045
G1 X166.736 Y161.111 E.04419
G1 X167.099 Y161.833 E.0301
G1 X167.617 Y162.453 E.03009
G1 X168.244 Y162.927 E.02928
G1 X170.35 Y163.502 E.08131
G1 X171.166 Y163.945 E.03458
G1 X171.736 Y164.406 E.0273
G1 X172.222 Y164.944 E.027
G1 X172.73 Y165.779 E.0364
G1 X173.053 Y166.698 E.03628
G1 X173.172 Y167.571 E.03282
G1 X173.126 Y168.425 E.03185
G1 X172.908 Y169.302 E.03366
G1 X172.565 Y170.047 E.03055
G1 X172.046 Y170.778 E.03339
G1 X171.439 Y171.361 E.03135
G1 X170.635 Y171.876 E.03556
G1 X169.922 Y172.163 E.02863
G1 X169.156 Y172.33 E.0292
G1 X167.979 Y172.332 E.04384
G1 X167.263 Y172.181 E.02725
G1 X166.584 Y171.923 E.02705
G1 X165.702 Y171.374 E.0387
G1 X164.913 Y170.615 E.04078
G1 X164.44 Y170.039 E.02776
G1 X164.222 Y169.893 E.00977
G1 X163.499 Y169.587 E.02924
G1 X162.702 Y169.448 E.03013
G1 X161.896 Y169.495 E.03007
G1 X160.779 Y169.892 E.04415
G1 X160.53 Y170.061 E.01121
G1 X160.092 Y170.609 E.02613
G1 X159.233 Y171.425 E.04413
G1 X158.575 Y171.843 E.02904
G1 X157.816 Y172.157 E.03059
G1 X156.974 Y172.337 E.03207
G1 X156.142 Y172.358 E.031
G1 X155.274 Y172.219 E.03274
G1 X154.49 Y171.936 E.03105
G1 X153.731 Y171.49 E.03279
G1 X153.035 Y170.869 E.03474
G1 X152.499 Y170.157 E.03319
G1 X152.114 Y169.363 E.03287
G1 X151.887 Y168.511 E.03284
G1 X151.826 Y167.633 E.03278
G1 X151.933 Y166.759 E.0328
G1 X152.209 Y165.912 E.03318
G1 X152.626 Y165.156 E.03216
G1 X153.146 Y164.522 E.03054
G1 X153.869 Y163.923 E.03497
G1 X154.821 Y163.434 E.03986
G1 X156.504 Y163.05 E.0643
G1 X156.756 Y162.927 E.01044
G1 X157.383 Y162.453 E.02928
G1 X157.901 Y161.833 E.03009
G1 X158.264 Y161.111 E.0301
G1 X158.478 Y159.944 E.04419
G1 X157.921 Y157.82 E.08179
G1 X157.901 Y156.88 E.03502
G1 X158.027 Y156.123 E.02858
G1 X158.291 Y155.365 E.0299
M73 P5 R11
G1 X158.67 Y154.695 E.02867
M204 S10000
G1 X159.065 Y154.919 F30000
M204 S500
G1 F3000
G1 X159.081 Y154.892 E.00117
G1 X159.529 Y154.347 E.02628
G1 X160.296 Y153.73 E.03666
G1 X160.921 Y153.41 E.02615
G1 X161.587 Y153.199 E.02602
G1 X162.645 Y153.101 E.03958
G1 X163.336 Y153.183 E.02592
G1 X164.004 Y153.379 E.02593
G1 X164.771 Y153.774 E.03213
G1 X165.387 Y154.265 E.02934
G1 X165.908 Y154.876 E.02991
G1 X166.33 Y155.64 E.03251
G1 X166.546 Y156.303 E.02597
G1 X166.648 Y156.995 E.02605
G1 X166.605 Y157.901 E.03378
G1 X166.087 Y159.591 E.06584
G1 X166.064 Y159.943 E.01314
G1 X166.174 Y160.831 E.03333
G1 X166.488 Y161.688 E.034
G1 X166.989 Y162.451 E.034
G1 X167.302 Y162.785 E.01705
G1 X168.015 Y163.324 E.03329
G1 X168.324 Y163.475 E.01281
G1 X169.103 Y163.607 E.02943
G1 X170.155 Y163.916 E.04084
G1 X170.896 Y164.315 E.03135
G1 X171.41 Y164.727 E.02454
G1 X171.867 Y165.233 E.0254
G1 X172.327 Y165.994 E.03312
G1 X172.603 Y166.784 E.03117
G1 X172.714 Y167.569 E.02953
G1 X172.671 Y168.379 E.03021
G1 X172.483 Y169.132 E.02891
G1 X172.179 Y169.801 E.02737
G1 X171.687 Y170.495 E.03169
G1 X171.14 Y171.014 E.02808
G1 X170.444 Y171.46 E.03079
G1 X169.77 Y171.731 E.02706
G1 X169.084 Y171.878 E.02613
G1 X168.049 Y171.879 E.03855
G1 X167.408 Y171.747 E.02438
G1 X166.767 Y171.503 E.02555
G1 X166.002 Y171.028 E.03354
G1 X165.243 Y170.298 E.03922
G1 X164.737 Y169.687 E.02955
G1 X164.452 Y169.496 E.01278
G1 X163.628 Y169.147 E.03333
G1 X162.729 Y168.991 E.03398
G1 X161.817 Y169.044 E.03403
G1 X161.372 Y169.147 E.01701
G1 X160.547 Y169.497 E.03338
G1 X160.215 Y169.723 E.01496
G1 X159.764 Y170.29 E.02698
G1 X158.968 Y171.053 E.04107
G1 X158.379 Y171.429 E.02603
G1 X157.698 Y171.715 E.02751
G1 X156.94 Y171.88 E.02889
G1 X156.152 Y171.901 E.02936
G1 X155.371 Y171.771 E.02949
G1 X154.667 Y171.515 E.0279
G1 X153.985 Y171.11 E.02954
G1 X153.358 Y170.545 E.03144
G1 X152.88 Y169.902 E.02984
G1 X152.536 Y169.186 E.02959
G1 X152.335 Y168.417 E.0296
G1 X152.284 Y167.627 E.02949
G1 X152.384 Y166.84 E.02955
G1 X152.635 Y166.077 E.02992
G1 X153.014 Y165.398 E.02896
G1 X153.483 Y164.831 E.02741
G1 X154.14 Y164.292 E.03165
G1 X154.966 Y163.868 E.03458
G1 X156.667 Y163.48 E.06498
G1 X157.35 Y163.08 E.02948
G1 X158.011 Y162.451 E.03399
G1 X158.512 Y161.688 E.034
G1 X158.694 Y161.268 E.01705
G1 X158.908 Y160.382 E.03395
G1 X158.913 Y159.6 E.02913
G1 X158.637 Y158.857 E.02952
G1 X158.371 Y157.738 E.04284
G1 X158.356 Y156.935 E.02991
G1 X158.475 Y156.218 E.02707
G1 X158.715 Y155.537 E.02689
G1 X159.036 Y154.971 E.02424
M204 S10000
G1 X159.432 Y155.193 F30000
M204 S500
G1 F3000
G1 X159.447 Y155.166 E.00115
G1 X159.867 Y154.656 E.02461
G1 X160.527 Y154.125 E.03155
G1 X161.078 Y153.84 E.02311
G1 X161.702 Y153.642 E.02438
